X:19127
T:Xota (MG 15)
T:Jota (MG 15)
R:Xota
C:Tradicional
S:Msica Tradicional Asturiana, (C) Tello & Tito. Asturies, 2001.
S:http://pagina.de/MusTradAst <telloytito@asturies.org>
O:Cadavu
A:Asturies
Z:Mtodu de Gaita 15
E:Nivel 2
M:3/8
L:1/8
Q:3/8=80
K:C
|: c>cc|ccc|~d2 B|GBB|c2 A|FGA|B2 G-|G3|
|~A>AA|AAA|B2 G|EGG|~A2 F|DEF|~G2 E-|[1 E3 :|[2 E2 G|
|: ~GFE|F2 A|~AGF|G2 c|cB~A|GEG|F~ED|[1 E2 G :|[2 C3|E>FG|
|: ccc|B>~AG|ccc|B>GF-|F3|D>EF|BBB|~A>GF|GAB|~G2 F|[1 E3|E>EFG :|:[2 E2 G|CCE|
|~G2 G|~GFE|F2 F|~F~ED|~EEG|F~E~D :|
|: C2 E|G2 ~A|GFE|~F2 E|D2 E|~F2 G|F~ED|~E2 D :|C2 C|
|: C~EE|D2 D|CB,C|D3|G>GG|G~AG|F~ED|C3 :|
|: E>FG|~GF~E|D2 E-|E3 :|:E>FG|~GF~E|D2 E-|E3 :|
|: c>cc|ccc|~d2 B|GBB|c2 A|FGA|B2 G-|G3|
|~A>AA|AAA|B2 G|EGG|~A2 F|DEF|~G2 E-|[1 E3 :|[2 E2 G|
|: ~GFE|F2 A|~AGF|G2 c|cB~A|GEG|F~ED|[1 E2 G :|[2 C2 E/G/|
|: c~dc|~A2 F|AFA|~G2 E|~GEG|~F2 D|FEF|G2 E/G/|
|c~dc|~A2 F|AFA|~G2 E|~GEG|~F2 D|FED|[1 C2 E/G/ :|[2 C3||
